X: 49
T:Miss Farr's Reel (#245)
M:4/4
L:1/8
S:Pat. Dunne, manuscript
R:Reel
K:G
Aced cAec|Acec dBGB|Aced cAed|BEEF GABG:||
ea a2 caea|Bg g2 dgBg|ea a2 caec|BEEF GABG|
ea a2 caea|Bg g2 dgBg|afge fdec|BEEF GABG||

